svgs/sharp-light/piggy-bank.svg

<svg xmlns="http://www.w3.org/2000/svg" viewBox="0 0 576 512"><!--! Font Awesome Pro 6.6.0 by @fontawesome - https://fontawesome.com License - https://fontawesome.com/license (Commercial License) Copyright 2024 Fonticons, Inc. --><path d="M193.1 98.6l-31.6-5.3C170.4 40.4 216.5 0 272 0c48.8 0 90.3 31.2 105.6 74.7L347.5 85.3C336.5 54.2 306.8 32 272 32c-39.6 0-72.5 28.8-78.9 66.6zM376.4 160L224 160c-70.7 0-128 57.3-128 128c0 41.9 20.1 79 51.2 102.4L160 400l0 16 0 64 64 0 0-32 0-32 32 0 64 0 32 0 0 32 0 32 64 0 0-45.3 0-20.9 19.2-8.4c20.4-8.9 38-23 51.2-40.6L496 352l16 0 32 0 0-96-13.3 0-20.9 0-8.4-19.2c-8.9-20.4-23-38-40.6-51.2l-17-12.8 5.1-20.6L455 128l-7 0c-19 0-35.9 8.2-47.7 21.3L390.7 160l-14.3 0zM448 96l15 0 33 0-8 32-8 32c22 16.5 39.5 38.5 50.7 64l13.3 0 32 0 0 32 0 96 0 32-32 0-32 0c-16.5 22-38.5 39.6-64 50.7l0 45.3 0 32-32 0-64 0-32 0 0-32 0-32-32 0-32 0 0 32 0 32-32 0-64 0-32 0 0-32 0-64c-38.9-29.2-64-75.7-64-128c0 0 0 0 0 0c-35.5-.8-64-29.8-64-65.4c0-24.8 14-47.4 36.2-58.5l4.7-2.3 14.3 28.6-4.7 2.3C39.2 198.3 32 209.9 32 222.6C32 241 47 256 65.4 256l1.8 0C82 183 146.6 128 224 128l152.4 0C394 108.4 419.6 96 448 96zM424 240a24 24 0 1 1 0 48 24 24 0 1 1 0-48z"/></svg>

<svg xmlns="http://www.w3.org/2000/svg" viewBox="0 0 576 512"><!--! Font Awesome Pro 6.5.2 by @fontawesome - https://fontawesome.com License - https://fontawesome.com/license (Commercial License) Copyright 2024 Fonticons, Inc. --><path d="M193.1 98.6l-31.6-5.3C170.4 40.4 216.5 0 272 0c48.8 0 90.3 31.2 105.6 74.7L347.5 85.3C336.5 54.2 306.8 32 272 32c-39.6 0-72.5 28.8-78.9 66.6zM376.4 160H224c-70.7 0-128 57.3-128 128c0 41.9 20.1 79 51.2 102.4L160 400v16 64h64V448 416h32 64 32v32 32h64V434.7 413.7l19.2-8.4c20.4-8.9 38-23 51.2-40.6L496 352h16 32V256H530.7 509.7l-8.4-19.2c-8.9-20.4-23-38-40.6-51.2l-17-12.8 5.1-20.6L455 128h-7c-19 0-35.9 8.2-47.7 21.3L390.7 160H376.4zM448 96h15 33l-8 32-8 32c22 16.5 39.5 38.5 50.7 64H544h32v32 96 32H544 512c-16.5 22-38.5 39.6-64 50.7V480v32H416 352 320V480 448H288 256v32 32H224 160 128V480 416c-38.9-29.2-64-75.7-64-128v0c-35.5-.8-64-29.8-64-65.4c0-24.8 14-47.4 36.2-58.5l4.7-2.3 14.3 28.6-4.7 2.3C39.2 198.3 32 209.9 32 222.6C32 241 47 256 65.4 256h1.8C82 183 146.6 128 224 128H376.4C394 108.4 419.6 96 448 96zM424 240a24 24 0 1 1 0 48 24 24 0 1 1 0-48z"/></svg>
